X:1
T:Ще не вмерли України ні слава ні воля
T:Ще не вмерли України ні слава ні воля
T:Ukrainas nasjonalsang
T:Mykhailo Verbytsky
C:Mykhailo Verbytsky
%%score [ 1 2 3 4 ]
L:1/8
Q:1/4=80
M:4/4
K:G
V:1 treble nm="Soprano"
V:2 treble nm="Alto"
V:3 treble-8 nm="Tenor"
V:4 bass nm="Bass"
V:1
 B3 B (BAB) c | d3 c B2 A2 | G2 B2 F2 B2 | (E3 F G2) A2 | B3 B (BAB) c | d3 c B2 A2 | G2 B2 F2 B2 | %7
w: Ще не вмер- * * ла|У- кра- ї- ни|ні сла- ва, ні|во- * * ля,|ще нам, брат- * * тя|у- кра- їн- ці,|у- сміх- не- ться|
 E4 E4 | F2 F2 (BAG) F | (EFG) B A2 A2 | G2 (FG) A2 A2 | B4 B4 | F2 F2 (BAG) F | (EF) (GB) A2 A2 | %14
w: до- ля!|Зги- нуть на- * * ші|во- * * рі- жень- ки,|як ро- * са на|сон- ці,|за- па- ну- * * єм|і _ ми, _ брат- тя|
 G2 B2 F2 B2 | E3 F G2 A2 |: d3 ^c d2 B2 | A2 A2 (dcB) A | G2 G2 A2 A2 | (B3 A B2) c2 | %20
w: у сво- їй сто-|рон- * ці! _|Ду- шу~й ті- ло|ми по- ло- * * жим|за на- шу сво-|бо- * * ду|
 d3 ^c d2 B2 | A2 A2 (dcB) A | G2 B2 F2 B2 |1 (E3 F) (G2 A2) :|2 E4 E2 z2 |] %25
w: та~й по- ка- жем|що ми, брат- * * тя,|ко- заць- ко- го|ро- * ду! _|ро- ду!|
V:2
 G3 G (GFG) A | B3 A G2 F2 | E2 E2 ^D2 (^CD) | (E3 ^D E2) F2 | G3 G (GFG) A | B3 A G2 F2 | %6
w: Ще не вмер- * * ла|У- кра- ї- ни|ні сла- ва, ні _|во- * * ля,|ще нам, брат- * * тя|у- кра- їн- ці,|
 E2 E2 ^D2 (^CD) | E4 E4 | F2 F2 (GFE) ^D | E3 E (FE) F2 | E2 E2 F2 (EF) | G4 G4 | F2 F2 (GFE) ^D | %13
w: у- сміх- не- ться _|до- ля!|Зги- нуть на- * * ші|во- рі- жень- * ки,|як ро- са на _|сон- ці,|за- па- ну- * * єм|
 E2 E2 (FE) F2 | E2 E2 ^D2 (^CD) | E4 E4 |: G3 G G2 G2 | E2 (EF) G3 F | E2 E2 F2 (EF) | G6 G2 | %20
w: і ми, брат- * тя|у сво- їй сто- *|рон- ці!|Ду- шу~й ті- ло|ми по- * ло- жим|за на- шу сво- *|бо- ду|
 G3 G G2 G2 | E2 (EF) G3 F | E2 E2 ^D2 (^CD) |1 G4 G4 :|2 E4 E2 z2 |] %25
w: та~й по- ка- жем|що ми, _ брат- тя,|ко- заць- ко- го _|ро- ду!|ро- ду!|
V:3
 d3 d (d^cd) e | d3 d d2 ^c2 | B2 B2 B2 B2 | (B3 A B2) c2 | d3 d (dcd) e | d3 d d2 c2 | %6
w: Ще не вмер- * * ла|У- кра- ї- ни|ні сла- ва, ні|во- * * ля,|ще нам, брат- * * тя|у- кра- їн- ці,|
 B2 B2 B2 (BA) | G4 G4 | B2 (Bc) B3 A | B3 d c2 c2 | B2 B2 c2 (Bc) | (d3 c) B4 | B2 (Bc) B3 A | %13
w: у- сміх- не- ться _|до- ля!|Зги- нуть _ на- ші|во- рі- жень- ки,|як ро- са на _|сон- * ці,|за- па- * ну- єм|
 B2 (Bd) c2 (dc) | B2 B2 B2 (BA) | G3 A B2 c2 |: d3 e d2 d2 | c2 (Bc) d3 c | B2 B2 c2 (Bc) | %19
w: і ми, _ брат- тя _|у сво- їй сто- *|рон- * ці! _|Ду- шу~й ті- ло|ми по- * ло- жим|за на- шу сво- *|
 (d3 c d2) e2 | d3 e d2 d2 | c2 (Bc) d3 c | B2 B2 B2 (BA) |1 (G3 A) (B2 c2) :|2 G4 G2 z2 |] %25
w: бо- * * ду|та~й по- ка- жем|що ми, _ брат- тя,|ко- заць- ко- го _|ро- * ду! _|ро- ду!|
V:4
 G,3 G, G,3 D, | G,3 A, B,2 C2 | B,2 (F,G,) A,2 (B,A,) | (G,3 F, E,2) D,2 | G,3 G, G,3 D, | %5
w: Ще не вмер- ла|У- кра- ї- ни|ні сла- * ва, ні _|во- * * ля,|ще нам, брат- тя|
 G,3 A, B,2 C2 | B,2 (F,G,) A,2 (B,A,) | E,4 E,4 | (^D,E,) (F,D,) B,,3 B,, | E,3 G, A,2 (E,F,) | %10
w: у- кра- їн- ці,|у- сміх- * не- ться _|до- ля!|Зги- * нуть _ на- ші|во- рі- жень- ки, _|
 G,2 (F,E,) D,2 D,2 | G,4 G,4 | (^D,E,) (F,D,) B,,3 B,, | (E,F,) (G,B,) A,2 (B,A,) | %14
w: як ро- * са на|сон- ці,|за- * па- * ну- єм|і _ ми, _ брат- тя _|
 G,2 (F,G,) A,2 (B,A,) | E,3 F, G,2 A,2 |: B,3 ^A, B,2 G,2 | A,2 D,2 (B,A,G,) D, | %18
w: у сво- * їй сто- *|рон- * ці! _|Ду- шу~й ті- ло|ми по- ло- * * жим|
 E,2 E,2 D,2 D,2 | G,6 A,2 | B,3 ^A, B,2 G,2 | A,2 D,2 (B,A,G,) D, | G,2 (F,G,) A,2 (B,A,) |1 %23
w: за на- шу сво-|бо- ду|та~й по- ка- жем|що ми, брат- * * тя,|ко- заць- * ко- го _|
 (E,3 F,) (G,2 A,2) :|2 E,4 E,2 z2 |] %25
w: ро- * ду! _|ро- ду!|

